X:1
T:Spirit Rappings
T:Spirit Rappings
T:W. W. Rossington
T:J. Elwood Garrett Esq.
T:Published 1853 (now in public domain)
T:Published 1853 (now in public domain)
T:Published 1853 (now in public domain)
C:W. W. Rossington
Z:J. Elwood Garrett Esq.
Z:Published 1853 (now in public domain)
%%score 1 { 2 | 3 }
L:1/8
M:2/4
K:F
V:1 treble nm="Voice" snm="Vo."
V:2 treble nm="Piano" snm="Pno."
V:3 treble 
V:1
"^Con Spirito" z4 | z4 | z4 | z4 | z4 | z4 | z4 | z4 |: cc cA | Bc AF | c>c cA | Bc F2 | cc cA | %13
w: ||||||||Soft- ly, soft- ly,|hear the rus- tle|Of the Spir- its'|air- y wings;|They are com- ing|
w: ||||||||Gent- ly, gent- ly,|they are tim- id,|If a me- dium|is not there;|They may leave you|
 Bc AF | f(e/d/) e(d/c/) | d(c/=B/) c z | cc cc | _d_e c_A | cc cc | _d_e c_A |!f! F>E F>E | %21
w: down to min- gle|Once a- * gain with _|earth- ly _ things,|With their rap- ping,|and their tap- ping,|Rap- tap- tap to|wake our nap- ping,|In the rest- less|
w: in de- lu- sion,|And dis- * solve a- *|gain in _ air.|'Tis no fa- ble—|be- ings a- ble—|Rap- tap- tap up-|on a ta- ble;|And their lan- guage|
 (F/G/)(_A/B/) cC | c>=B c>B | (c/_A/)(G/F/) c2 | cc cA | BG AF | cc cA | BG AF | d>d d>d | %29
w: dream _ of _ er- ror:|Hear the weird the|Spir- * it _ brings:|Rap- tap- tap, lost|friends are near you;|Rap- tap- tap, they|see and hear you;|In their mys- tic|
w: is _ trans- * la- ted,|While they watch with|guard- * ian _ care.||||||
 (c/d/)(c/B/) AF | d>d cA | Bc AF | df !fermata!f>c | (c/C/D/)E/ FF | z4 | z4 | z4 | z4 | z4 | z4 | %40
w: con- * verse _ rap- py|They de- clare good|Spir- its hap- py,|They de- clare good|Spir- * * its hap- py.|||||||
w: |||||||||||
 z4 | z4 :| %42
w: ||
w: ||
V:2
!p! cc/d/ cA | BG AF | cc/d/ cA | Bc A2 | cc/d/ cA | BG AF | f/e/_e/d/ _d/c/=B/=d/ | %7
 c[GBe] [Acf]2 |: [Ac][Ac] [Ac][CA] | [EB][Ec] [CA][A,F] | [Ac][Ac] [Ac][CA] | [EB][Ec] [A,CF]2 | %12
 [Ac][Ac] [Ac][CA] | [EB][Ec] [CA][A,F] | [Af][Ge]/[Fd]/ [Ge][Fd]/[Ec]/ | [DF][CE]/[=B,D]/ [CE] z | %16
 z/ C/_E/_A/ z/ C/E/A/ | z/ B,/_D/_E/ z/ C/_E/_A/ | z/ C/_E/_A/ z/ C/E/A/ | %19
 z/ B,/_D/_E/ z/ C/_E/_A/ |!f! F>E F>E | F/G/_A/B/ cC | c>=B c>B | c/_A/G/F/ [Ec]2 | %24
 z/ A,/C/F/ z/ A,/C/F/ | z/ G,/C/E/ z/ A,/C/F/ | z/ A,/C/F/ z/ A,/C/F/ | z/ G,/B,/E/ z/ A,/C/F/ | %28
 [FBd]>[FBd] [FBd]>[FBd] | [Ac]/[Bd]/[Ac]/[GB]/ [FA][A,F] | d>d [Ac][CA] | [CB][Ec] [CA][A,F] | %32
 [Fd][Fd] !fermata![Ac]>c | c/C/D/E/ FF | cc/d/ cA | BG AF | cc/d/ cA | Bc A2 | cc/d/ cA | BG AF | %40
 f/e/_e/d/ _d/c/=B/=d/ | c[GBe] [Acf]2 :| %42
V:3
 AA/B/ AF | GE FA, | AA/B/ AF | GE F2 | AA/B/ AF | GE FA, | %6
[K:bass] F,/E,/_E,/D,/ _D,/C,/=B,,/=D,/ | C,[C,C] [F,,F,]2 |: [F,,F,][F,,F,] [F,,F,][F,,F,] | %9
 C,C,, F,F,, | [F,,F,][F,,F,] [F,,F,][F,,F,] | C,C,, [F,,F,]2 | [F,,F,][F,,F,] [F,,F,][F,,F,] | %13
 C,C,, F,F,, | D,E,/F,/ C,D,/E,/ | F,G, C, z | [^G,,^G,] z [G,,G,] z | [^D,,^D,] z [^G,,^G,] z | %18
 [^G,,^G,] z [G,,G,] z | [_E,,_E,] z [_A,,_A,] z | [F,,F,]>[E,,E,] [F,,F,]>[E,,E,] | %21
 [F,,F,]/[G,,G,]/[_A,,_A,]/[B,,B,]/ CC, | C>=B, C>B, | C/_A,/G,/F,/ C2 | %24
"^Dolce" [F,,F,] z [F,,F,] z | [C,,C,] z [F,,F,] z | [F,,F,] z [F,,F,] z | [C,,C,] z [F,,F,] z | %28
 B,,/A,,/B,,/C,/ D,/C,/D,/E,/ | F,/C,/D,/E,/ F,F,, | F,/C,/D,/E,/ F,F,, | E,C, F,F,, | %32
 B,B,, !fermata![F,,F,]2 | C/C,/D,/E,/ F,F,, |[K:treble] AA/B/ AF | GE FA, | AA/B/ AF | GE F2 | %38
 AA/B/ AF | GE FA, |[K:bass] F,/E,/_E,/D,/ _D,/C,/=B,,/=D,/ | C,[C,C] [F,,F,]2 :| %42

